X:1
T:Dolce nemica mia
T:Dolce nemica mia
T:Ponponio Nenna
T:Source : Primo libro delle villanelle a 3 voci---Venetia---Figlio d'A.Gardano---1574. Editor : André Vierendeels (12/03/16).
T:Notes : Original clefs :C1, C3, C4 Editorial accidentals above the staff "Alla napolitana" Music by composers from Bari, collected by Giovanni de Antiquis 
T:©
T:©
C:Ponponio Nenna
Z:©
%%score [ 1 [ 2 3 ] ]
L:1/8
Q:1/4=120
M:4/4
K:C
V:1 treble nm="Soprano" snm="S"
V:2 treble-8 nm="Tenor 1" snm="T 1"
V:3 treble-8 nm="Tenor 2" snm="T 2"
V:1
 G4 E2 G2 | F2 E2 D4 | E2 G2 GFEF | G2 G2 c4 | B4 A4 | G3 F E4 |[M:2/4] D4 ::[M:4/4] z2 A2 A2 A2 | %8
w: 1)Dol- ce ne-|mi- ca mi-|a, per- che _ _ _|_ mi vie-|1)ti, per-|che mi vie-|ti,|s'io hag- gi'a-|
w: 2)Tu mi pri-|vi de tuo-|i be- gli'oc- * * *|* chi lie-|2)ti, be-|gli'oc- chi lie-|ti,|et io d'a-|
w: 3)Tu non te-|mi d'a- mo-|re, _ i lac- * *|* ci'o re-|3)ti, lac-|ci- o re-|ti,|a- vuol- ta'in|
w: 4)Ma se non|noi ch'io t'a-|mi, o vi- * * *|* ta mi-|4)a, o|vi- ta mi-|a,|la- scia- m'in|
 G2 G2 A2 E2 | F2 G2 A2 A2 | G3 F E2 E2 | F2 D2 D2 C2 | F2 F2 E2 C2- | C2 D4 E2- | E2 F4 GF | %15
w: 1)ma- to'e pur io|t'a- ma- ro, fin|all' in- fer- n'an-|chor, fin all' in-|1)fer- n'an- chor ti|_ se- gui-||
w: 2)mar- ti mai ti|la- scia- ro, et|fin d'a- mor- t'e,|et fin d'a- mor-|2)- t'e piu ti|_ se- gui-||
w: 3)quel- le'un tem- po|ti ve- dro, et|fin d'a- mor- t'e,|_ et fin d'a-|3)mor- t'e piu ti|_ se- gui-||
w: 4)li- ber- ta per|al- tra vi- a'ha-|vro for- se pia-|ce- re, e cor-|4)te- si- a, e|_ cor- te-|* si- * *|
 ED E2 D4 :| %16
w: * * * ro|
w: * * * ro.|
w: * * * ro|
w: * * * a.|
V:2
 e4 c3 B | A2 c4 B2 | c2 e2 edcd | e2 g4 ^f2 | g2 d2 f4 |"^#" e2 d4 c2 |[M:2/4] d4 :: %7
w: 1)Dol- ce ne-|mi- ca mi-|a, per- che _ _ _|_ mi _|1)vie- ti, per-|che mi vie-|ti,|
w: 2)Tu mi pri-|vi de tuo-|i ge- gli'oc- * * *|* chi lie-|2)ti, _ be-|gli'oc- chi lie-|ti,|
[M:4/4] z2 f2 f2 f2 | e2 e2 f2 c2 | d2 e2 f2 f2 |"^#" e2 d2 d2 c2 | d2 B2 A2 c2 | c2 B2 c2 G2 | %13
w: s'io hag- gi'a-|1)ma- to'e pur io|t'a- ma- ro, fin|all' in- fer- n'an-|chor, fin all' in-|1)fer- n'an- chor ti|
w: et io d'a-|2)mar- ti mai ti|la- scia- ro, et|fin d'a- mor- t'e|et fin d'a- mor-|2)- t'e piu ti|
 A4 B4 | c4 d2 d2- | d2 ^c2 d4 :| %16
w: se gui-|* ro, [se-|* gui- ro.]|
w: se- gui-|* ro, [se-|* gui- ro.]|
V:3
 c4 C2 C2 | D2 C2 G4 | C2 c2 cBAB | c3 B A4 | G4 F4 | G2 G2 A4 |[M:2/4] D4 ::[M:4/4] z2 F2 F2 F2 | %8
w: 3)Tu non te-|mi d'a- mo-|re, i lac- * * *|* cio re-|3)ti, lac-|ci- o re-|ti,|a vuol- ta'in|
w: 4)Ma se non|noi ch'io t'a-|mi, o vi- * * *|* ta mi-|4)a, o|vi- ta mi-|a,|la- scia- m'in|
 c2 c2 F2 A2 | _B2 c2 F2 F2 | G2 G2 A2 A2 | D2 G2 F3 E | D2 D2 C4 | F4 G4 | A4 _B2 G2 | A2 A2 D4 :| %16
w: 3)quel- le'un tem- po|ti ve- dro, et|fin d'a- mor- t'e,|et fin d'a- *|3)mor- t'e piu|ti se-|gui- ro, [se-|* gui- ro.]|
w: 4)li- ber- ta per|al- tra vi- a'ha-|vro for- se pia-|ce- r'e cor- te-|4)si- a, e|cor- te-|si- * *|* * a.|

